X:1
T:Easter Bells
T:Easter Bells
T:Adam Geibel
T:Alice Jean Cleator, 1903
T:Public Domain Courtesy of the Cyber Hymnal™
C:Adam Geibel
Z:Public Domain
Z:Courtesy of the Cyber Hymnal™
%%score ( 1 2 ) ( 3 4 )
L:1/8
Q:1/4=110
M:4/4
K:G
V:1 treble 
V:2 treble 
V:3 bass 
V:4 bass 
V:1
 D2 d2 B2 G2 | E2 e2 c2 A2 | F2 c2 E2 [_Ec]2 | [Dc]4 [DB]2 D2 | D2 d2 B2 G2 | E2 e2 c2 B2 | %6
w: 1.~Now we hail the|joy- ous chime Of|East- er joy- bells|ring- ing; ~|Now we hail the|glad- some time When|
w: 2.~Oft as mer- cy|East- er bells Ring|out their mes- sage|gold- en; Each|mea- sured chime in|mu- sic tells A|
w: 3.~Bells of East- er|earth can kn- ow,|Sweet- er mu- sic|ne- ver! ~|Ring in glad- ness|to and fro, ~|
 [EA]2 [EB]2 [EA]2 [EB]2 | (A2 d2) F2 G2 | A2 B2 F2 B2 [^CA]4 !fermata!D4 || %9
w: hap- py hearts are|sing- * ing; When|hap- py hearts are sing- ing:|
w: sto- ry sweet and|old- * en; A|sto- ry sweet and old- en.|
w: Oh, ring on for-|ev- * er! ~|Oh, ring on for- ev- er!|
"^Refrain" [Fe]2 ([FA][^E^G]) [FA]2 [F=e]2 | [Ge]2 (d^c) [Gd]4 | B2 (AG) F2 E2 | [^DB]4 B,2 z2 | %13
w: ||||
w: Bells oh * ring, and|glad hearts * sing,|Tell the * won- drous|sto- ry,|
w: ||||
 [EB]2 (A^G) [EA]2 [Ee]2 | [DA]2 (GF) !fermata![^CG]4 | D2 (EF) (GA) (Bc) | [FA]4 G4 |] x8 |] %18
w: |||||
w: To the * world a|mes- sage * bring|Of the * King * of *|glo- ry.||
w: |||||
V:2
 x8 | x8 | x8 | x8 | x8 | x8 | x8 | D4 x4 | x16 || x8 | x2 G2 x4 | B2 AG F2 E2 | x4 B,2 x2 | %13
 x2 E2 x4 | x2 D2 x4 | D2 EF GABc | x4 G4 |] x8 |] %18
V:3
 G,,2 [D,G,B,]2 [D,G,B,]2 z2 | C,2 [E,A,C]2 [E,A,C]2 z2 | D,2 [F,C]2 D,2 [F,C]2 | %3
 (G,,2 [D,G,B,]2) [D,G,B,]2 [D,G,B,]2 | G,,2 [D,G,B,]2 [D,G,B,]2 z2 | C,2 [E,A,]2 [E,A,]2 z2 | %6
 [C,A,]2 [C,A,]2 [^C,G,]2 [C,G,]2 | [D,F,]4 F,2 G,2 | A,2 B,2 F,2 B,2 x8 || %9
 [A,,G,]4 !fermata![D,F,]4 | [D,C]2 (CB,) [D,C]2 [D,C]2 | [G,B,]2 (B,^A,) [G,B,]4 | %12
 B,2 A,G, F,2 E,2 | [B,,F,]4 [B,,B,]2 z2 | [C,A,]2 [C,C]2 [C,C]2 [C,C]2 | %15
 [D,B,]2 [D,B,]2 !fermata![_E,_B,]4 | [D,B,]2 E,F, G,A,B,C |] [D,C]4 [G,,G,B,]4 |] %18
V:4
 x8 | x8 | x8 | x8 | x8 | x8 | x8 | x8 | x16 || x8 | x2 D,2 x4 | x2 G,2 x4 | B,2 (A,G,) F,2 E,2 | %13
 x8 | x8 | x8 | x2 (E,F,) (G,A,) (B,C) |] x8 |] %18

